64x64/apps/steam_icon_515220.svg

<svg height="64" width="64" xmlns="http://www.w3.org/2000/svg"><rect height="56" opacity=".2" rx="3" width="56" x="4" y="5"/><rect fill="#e7b212" height="56" rx="3" width="56" x="4" y="4"/><path d="m35 19v22h8l14-2h-17l17.2-3.2-17.2.2 17-3h-17l17-3h-17l17-3h-17l17-3-17 1 17-3h-17l17-3h-18zm8 22v6h3l11-3h-14l14-3zm-31-22-5 28h14v-6h8v-11h-8v-5c8 0 8-6 8-6z" opacity=".1"/><path d="m12 18-5 28h14v-6h8v-11h-8v-5c8 0 8-6 8-6zm23 0v22h8l14-2h-17l17.2-3.2-17.2.2 17-3h-17l17-3h-17l17-3h-17l17-3-17 1 17-3h-17l17-3zm8 22v3l14-3zm0 3v3h3l11-3z" fill="#4f4f4f"/><path d="m7 4c-1.662 0-3 1.338-3 3v1c0-1.662 1.338-3 3-3h50c1.662 0 3 1.338 3 3v-1c0-1.662-1.338-3-3-3z" fill="#f4f4f7" opacity=".2"/></svg>

<svg width="64" height="64" xmlns="http://www.w3.org/2000/svg"><rect x="4" y="5" width="56" height="56" rx="3" ry="3" style="opacity:.2"/><rect x="4" y="4" width="56" height="56" rx="3" ry="3" style="fill:#e7b212"/><path d="M35 19v22h8l14-2H40l17.2-3.2L40 36l17-3H40l17-3H40l17-3H40l17-3-17 1 17-3H40l17-3H39zm8 22v6h3l11-3H43l14-3zM12 19 7 47h14v-6h8V30h-8v-5c8 0 8-6 8-6z" style="opacity:.1"/><path d="M12 18 7 46h14v-6h8V29h-8v-5c8 0 8-6 8-6H12zm23 0v22h8l14-2H40l17.2-3.2L40 35l17-3H40l17-3H40l17-3H40l17-3-17 1 17-3H40l17-3H35zm8 22v3l14-3H43zm0 3v3h3l11-3H43z" style="fill:#4f4f4f"/><path d="M7 4C5.338 4 4 5.338 4 7v1c0-1.662 1.338-3 3-3h50c1.662 0 3 1.338 3 3V7c0-1.662-1.338-3-3-3z" style="fill:#f4f4f7;opacity:.2"/></svg>
